src/college.svg

<?xml version="1.0" encoding="UTF-8" standalone="no"?>
<!-- Created with Inkscape (http://www.inkscape.org/) -->

<svg
   xmlns:dc="http://purl.org/dc/elements/1.1/"
   xmlns:cc="http://creativecommons.org/ns#"
   xmlns:rdf="http://www.w3.org/1999/02/22-rdf-syntax-ns#"
   xmlns:svg="http://www.w3.org/2000/svg"
   xmlns="http://www.w3.org/2000/svg"
   xmlns:sodipodi="http://sodipodi.sourceforge.net/DTD/sodipodi-0.dtd"
   xmlns:inkscape="http://www.inkscape.org/namespaces/inkscape"
   width="580"
   height="580"
   id="svg3032"
   version="1.1"
   inkscape:version="0.48.4 r9939"
   sodipodi:docname="New document 2">
  <defs
     id="defs3034" />
  <sodipodi:namedview
     id="base"
     pagecolor="#ffffff"
     bordercolor="#666666"
     borderopacity="1.0"
     inkscape:pageopacity="0.0"
     inkscape:pageshadow="2"
     inkscape:zoom="0.35"
     inkscape:cx="35"
     inkscape:cy="520"
     inkscape:document-units="px"
     inkscape:current-layer="layer1"
     showgrid="false"
     inkscape:window-width="1920"
     inkscape:window-height="1124"
     inkscape:window-x="0"
     inkscape:window-y="24"
     inkscape:window-maximized="1" />
  <metadata
     id="metadata3037">
    <rdf:RDF>
      <cc:Work
         rdf:about="">
        <dc:format>image/svg+xml</dc:format>
        <dc:type
           rdf:resource="http://purl.org/dc/dcmitype/StillImage" />
        <dc:title></dc:title>
      </cc:Work>
    </rdf:RDF>
  </metadata>
  <g
     inkscape:label="Layer 1"
     inkscape:groupmode="layer"
     id="layer1"
     transform="translate(0,-472.36218)">
    <g
       transform="translate(-2.1375809,476.81109)"
       id="g3013">
      <path
         inkscape:connector-curvature="0"
         id="path3526"
         d="m 288.875,46.5 a 15.394957,15.394957 0 0 0 -14,9.59375 l -39.59375,93.71875 33.4375,0 21.9375,-51.9375 22,51.9375 33.4375,0 L 306.375,56.09375 a 15.394957,15.394957 0 0 0 -15.8125,-9.5 A 15.394957,15.394957 0 0 0 288.875,46.5 z m -160.90625,377.3125 -32.65625,79 a 15.394957,15.394957 0 1 0 28.4375,11.75 l 37.5,-90.75 -33.28125,0 z m 290.03125,0 6.09375,9.875 33.375,80.875 a 15.399125,15.399125 0 1 0 28.46875,-11.75 l -32.65625,-79 -35.28125,0 z"
         style="font-size:medium;font-style:normal;font-variant:normal;font-weight:normal;font-stretch:normal;text-indent:0;text-align:start;text-decoration:none;line-height:normal;letter-spacing:normal;word-spacing:normal;text-transform:none;direction:ltr;block-progression:tb;writing-mode:lr-tb;text-anchor:start;opacity:0.75;color:#000000;fill:#000000;fill-opacity:1;stroke:none;stroke-width:30.78683472;marker:none;visibility:visible;display:inline;overflow:visible;enable-background:accumulate;font-family:Bitstream Charter;-inkscape-font-specification:Bitstream Charter" />
      <path
         inkscape:connector-curvature="0"
         sodipodi:nodetypes="cccccccccccccccccccccccccccccccccccccccccccc"
         id="rect3530"
         d="m 71.654879,152.91997 5.063952,270.67799 435.065989,-4.51986 -2.35096,-267.78613 -437.778981,1.628 z m 318.482771,40.38298 c 1.1537,-0.006 2.31537,0.009 3.46747,0.0488 7.88726,-0.11941 15.96255,0.30671 23.68621,1.36745 36.18418,4.93808 67.52904,35.08881 71.84002,71.547 5.19228,28.67854 -4.01296,61.16539 -29.74206,77.45635 l 36.62816,0 0,35.6514 -83.85406,0 0,-38.2398 c 28.16775,-18.29131 36.78867,-58.17527 23.19783,-88.05409 -9.46122,-27.14063 -48.59941,-34.08038 -68.51908,-14.50467 -26.12217,29.01687 -19.46324,81.36082 13.528,102.55885 l 0,38.23979 -69.78884,0 c -13.02705,3.22698 -16.41409,-3.18604 -14.06522,-15.33499 1.3679,-8.3996 -5.04116,-24.57617 8.98611,-20.31641 8.42664,-0.36229 20.85442,0.72956 26.76298,-0.53722 -29.90421,-19.67126 -36.42736,-60.92804 -24.90715,-92.79133 10.89695,-35.13803 47.01461,-56.90107 82.77963,-57.0911 l 0,-3e-5 z m -299.276464,3.32094 46.981714,0 c 0.0125,14.94432 -0.0347,29.88872 0.0488,44.83287 -1.16558,21.33163 3.29572,45.07651 21.68387,58.31203 0.57786,-34.37897 0.21692,-68.76367 0.29303,-103.1449 l 47.03055,0 0,103.29141 c 6.70866,-5.30038 12.22465,-11.74705 15.96987,-19.43734 10.56784,-26.48967 4.63771,-56.04708 6.1047,-83.85407 l 46.98172,0 c -0.93206,28.71522 3.39029,58.19748 -4.78609,86.14944 -8.94346,28.26485 -32.78537,56.11869 -64.12368,58.89807 -0.23849,12.5662 -0.11784,25.13501 -0.14644,37.70259 l -47.03056,0 0,-37.65375 C 138.40572,340.29945 120.79819,325.60022 108.63806,308.99909 85.141109,277.81677 91.673366,236.46518 90.958869,199.94486 c -0.03256,-1.10699 -0.06511,-2.21398 -0.09766,-3.32097 l -2.3e-5,0 z"
         style="fill:#000000;fill-opacity:1;stroke:none" />
      <rect
         style="fill:none;stroke:#000000;stroke-width:20.52455711;stroke-linecap:round;stroke-linejoin:round;stroke-miterlimit:4;stroke-opacity:1;stroke-dasharray:none;stroke-dashoffset:0"
         id="rect3544"
         width="437.7486"
         height="273.98654"
         x="73.263283"
         y="149.82085" />
    </g>
  </g>
</svg>

<?xml version="1.0" encoding="UTF-8" standalone="no"?>
<!-- Created with Inkscape (http://www.inkscape.org/) -->

<svg
   xmlns:dc="http://purl.org/dc/elements/1.1/"
   xmlns:cc="http://creativecommons.org/ns#"
   xmlns:rdf="http://www.w3.org/1999/02/22-rdf-syntax-ns#"
   xmlns:svg="http://www.w3.org/2000/svg"
   xmlns="http://www.w3.org/2000/svg"
   xmlns:sodipodi="http://sodipodi.sourceforge.net/DTD/sodipodi-0.dtd"
   xmlns:inkscape="http://www.inkscape.org/namespaces/inkscape"
   version="1.0"
   width="580"
   height="580"
   id="svg2"
   sodipodi:version="0.32"
   inkscape:version="0.48.4 r9939"
   sodipodi:docname="college.svg"
   inkscape:output_extension="org.inkscape.output.svg.inkscape">
  <metadata
     id="metadata2975">
    <rdf:RDF>
      <cc:Work
         rdf:about="">
        <dc:format>image/svg+xml</dc:format>
        <dc:type
           rdf:resource="http://purl.org/dc/dcmitype/StillImage" />
        <cc:license
           rdf:resource="http://web.resource.org/cc/PublicDomain" />
        <dc:language>en</dc:language>
        <dc:title />
      </cc:Work>
    </rdf:RDF>
  </metadata>
  <sodipodi:namedview
     inkscape:window-height="998"
     inkscape:window-width="1920"
     inkscape:pageshadow="2"
     inkscape:pageopacity="0.0"
     guidetolerance="10.0"
     gridtolerance="10.0"
     objecttolerance="10.0"
     borderopacity="1.0"
     bordercolor="#666666"
     pagecolor="#ffffff"
     id="base"
     inkscape:zoom="0.92167712"
     inkscape:cx="306.60958"
     inkscape:cy="196.94426"
     inkscape:window-x="0"
     inkscape:window-y="24"
     inkscape:current-layer="svg2"
     showgrid="false"
     inkscape:window-maximized="1" />
  <defs
     id="defs4">
    <inkscape:perspective
       sodipodi:type="inkscape:persp3d"
       inkscape:vp_x="0 : 290 : 1"
       inkscape:vp_y="0 : 1000 : 0"
       inkscape:vp_z="580 : 290 : 1"
       inkscape:persp3d-origin="290 : 193.33333 : 1"
       id="perspective2441" />
    <inkscape:perspective
       id="perspective3452"
       inkscape:persp3d-origin="30 : 20 : 1"
       inkscape:vp_z="60 : 30 : 1"
       inkscape:vp_y="0 : 1000 : 0"
       inkscape:vp_x="0 : 30 : 1"
       sodipodi:type="inkscape:persp3d" />
    <symbol
       viewBox="244.5 110 489 219.9"
       id="symbol-university">
      <path
         id="path4460"
         d="M79,43l57,119c0,0,21-96,104-96s124,106,124,106l43-133l82-17L0,17L79,43z" />
      <path
         id="path4462"
         d="M94,176l-21,39"
         stroke-width="20"
         stroke="#000000"
         fill="none" />
      <path
         id="path4464"
         d="M300,19c0,10.5-22.6,19-50.5,19S199,29.5,199,19s22.6-19,50.5-19S300,8.5,300,19z" />
      <path
         id="path4466"
         d="M112,216l-16-38L64,88c0,0-9-8-4-35s16-24,16-24"
         stroke-width="20"
         stroke="#000000"
         ill="none" />
    </symbol>
    <inkscape:perspective
       id="perspective4471"
       inkscape:persp3d-origin="372.04724 : 350.78739 : 1"
       inkscape:vp_z="744.09448 : 526.18109 : 1"
       inkscape:vp_y="0 : 1000 : 0"
       inkscape:vp_x="0 : 526.18109 : 1"
       sodipodi:type="inkscape:persp3d" />
    <inkscape:perspective
       id="perspective4668"
       inkscape:persp3d-origin="6 : 4 : 1"
       inkscape:vp_z="12 : 6 : 1"
       inkscape:vp_y="0 : 1000 : 0"
       inkscape:vp_x="0 : 6 : 1"
       sodipodi:type="inkscape:persp3d" />
    <marker
       viewBox="0 0 10 10"
       refY="5"
       refX="10"
       orient="auto"
       markerWidth="4"
       markerUnits="strokeWidth"
       markerHeight="3"
       id="ArrowStart">
      <path
         id="path3634"
         d="M 10 0 L 0 5 L 10 10 z" />
    </marker>
    <marker
       viewBox="0 0 10 10"
       refY="5"
       refX="0"
       orient="auto"
       markerWidth="4"
       markerUnits="strokeWidth"
       markerHeight="3"
       id="ArrowEnd">
      <path
         id="path3631"
         d="M 0 0 L 10 5 L 0 10 z" />
    </marker>
    <inkscape:perspective
       id="perspective2510"
       inkscape:persp3d-origin="306.082 : 204.39034 : 1"
       inkscape:vp_z="612.164 : 306.58551 : 1"
       inkscape:vp_y="0 : 1000 : 0"
       inkscape:vp_x="0 : 306.58551 : 1"
       sodipodi:type="inkscape:persp3d" />
    <marker
       viewBox="0 0 10 10"
       refY="5"
       refX="10"
       orient="auto"
       markerWidth="4"
       markerUnits="strokeWidth"
       markerHeight="3"
       id="marker2611">
      <path
         id="path1325"
         d="M 10 0 L 0 5 L 10 10 z" />
    </marker>
    <marker
       viewBox="0 0 10 10"
       refY="5"
       refX="0"
       orient="auto"
       markerWidth="4"
       markerUnits="strokeWidth"
       markerHeight="3"
       id="marker2608">
      <path
         id="path1322"
         d="M 0 0 L 10 5 L 0 10 z" />
    </marker>
    <inkscape:perspective
       id="perspective2605"
       inkscape:persp3d-origin="306.082 : 204.39034 : 1"
       inkscape:vp_z="612.164 : 306.58551 : 1"
       inkscape:vp_y="0 : 1000 : 0"
       inkscape:vp_x="0 : 306.58551 : 1"
       sodipodi:type="inkscape:persp3d" />
    <inkscape:perspective
       id="perspective2656"
       inkscape:persp3d-origin="372.04724 : 350.78739 : 1"
       inkscape:vp_z="744.09448 : 526.18109 : 1"
       inkscape:vp_y="0 : 1000 : 0"
       inkscape:vp_x="0 : 526.18109 : 1"
       sodipodi:type="inkscape:persp3d" />
    <inkscape:perspective
       id="perspective4707"
       inkscape:persp3d-origin="0.5 : 0.33333333 : 1"
       inkscape:vp_z="1 : 0.5 : 1"
       inkscape:vp_y="0 : 1000 : 0"
       inkscape:vp_x="0 : 0.5 : 1"
       sodipodi:type="inkscape:persp3d" />
    <clipPath
       id="clipoutline1"
       clipPathUnits="userSpaceOnUse">
      <path
         d="m 22.42,17.2 12.96,12.95 -2.5,8.78 -8.78,2.5 -12.96,-12.96 -5.86,5.86 14.89,21.46 17.56,-3.34 61.63,65.62 c 9.44,9.51 22.17,-4.75 13.34,-12.87 L 46.85,42.92 50.86,25.16 28.72,10.89 22.42,17.2 z m 81.06,91.97 c 1.68,-1.68 4.4,-1.68 6.08,0 1.68,1.68 1.68,4.4 0,6.08 -1.68,1.67 -4.4,1.67 -6.08,0 -1.68,-1.68 -1.68,-4.4 0,-6.08 z"
         id="outline1" />
    </clipPath>
    <inkscape:perspective
       id="perspective5296"
       inkscape:persp3d-origin="0.5 : 0.33333333 : 1"
       inkscape:vp_z="1 : 0.5 : 1"
       inkscape:vp_y="0 : 1000 : 0"
       inkscape:vp_x="0 : 0.5 : 1"
       sodipodi:type="inkscape:persp3d" />
    <clipPath
       id="clipoutline1-9"
       clipPathUnits="userSpaceOnUse">
      <path
         d="m 22.42,17.2 12.96,12.95 -2.5,8.78 -8.78,2.5 -12.96,-12.96 -5.86,5.86 14.89,21.46 17.56,-3.34 61.63,65.62 c 9.44,9.51 22.17,-4.75 13.34,-12.87 L 46.85,42.92 50.86,25.16 28.72,10.89 22.42,17.2 z m 81.06,91.97 c 1.68,-1.68 4.4,-1.68 6.08,0 1.68,1.68 1.68,4.4 0,6.08 -1.68,1.67 -4.4,1.67 -6.08,0 -1.68,-1.68 -1.68,-4.4 0,-6.08 z"
         id="outline1-7" />
    </clipPath>
  </defs>
  <g
     id="layer3"
     inkscape:label="Layout"
     style="display:none;stroke:#757575;stroke-opacity:1"
     transform="matrix(48.14969,0,0,48.14969,-536.27327,-33.306752)">
    <rect
       style="fill:none;stroke:#757575;stroke-width:0.10000000000000001;stroke-miterlimit:4;stroke-dasharray:none;stroke-opacity:1;display:inline"
       id="rect4134"
       width="10"
       height="10"
       x="1"
       y="1" />
    <rect
       style="fill:none;stroke:#757575;stroke-width:0.10000000000000001;stroke-miterlimit:4;stroke-dasharray:none;stroke-opacity:1;display:inline"
       id="rect4136"
       width="8"
       height="8"
       x="2"
       y="2" />
  </g>
  <path
     style="font-size:medium;font-style:normal;font-variant:normal;font-weight:normal;font-stretch:normal;text-indent:0;text-align:start;text-decoration:none;line-height:normal;letter-spacing:normal;word-spacing:normal;text-transform:none;direction:ltr;block-progression:tb;writing-mode:lr-tb;text-anchor:start;opacity:0.75;color:#000000;fill:#000000;;fill-opacity:1;stroke:none;stroke-width:30.78683472;marker:none;visibility:visible;display:inline;overflow:visible;enable-background:accumulate;font-family:Bitstream Charter;-inkscape-font-specification:Bitstream Charter"
     d="M 288.875 46.5 A 15.394957 15.394957 0 0 0 274.875 56.09375 L 235.28125 149.8125 L 268.71875 149.8125 L 290.65625 97.875 L 312.65625 149.8125 L 346.09375 149.8125 L 306.375 56.09375 A 15.394957 15.394957 0 0 0 290.5625 46.59375 A 15.394957 15.394957 0 0 0 288.875 46.5 z M 127.96875 423.8125 L 95.3125 502.8125 A 15.394957 15.394957 0 1 0 123.75 514.5625 L 161.25 423.8125 L 127.96875 423.8125 z M 418 423.8125 L 424.09375 433.6875 L 457.46875 514.5625 A 15.399125 15.399125 0 1 0 485.9375 502.8125 L 453.28125 423.8125 L 418 423.8125 z "
     id="path3526" />
  <path
     style="fill:#000000;;fill-opacity:1;stroke:none"
     d="m 71.654879,152.91997 5.063952,270.67799 435.065989,-4.51986 -2.35096,-267.78613 -437.778981,1.628 z m 318.482771,40.38298 c 1.1537,-0.006 2.31537,0.009 3.46747,0.0488 7.88726,-0.11941 15.96255,0.30671 23.68621,1.36745 36.18418,4.93808 67.52904,35.08881 71.84002,71.547 5.19228,28.67854 -4.01296,61.16539 -29.74206,77.45635 l 36.62816,0 0,35.6514 -83.85406,0 0,-38.2398 c 28.16775,-18.29131 36.78867,-58.17527 23.19783,-88.05409 -9.46122,-27.14063 -48.59941,-34.08038 -68.51908,-14.50467 -26.12217,29.01687 -19.46324,81.36082 13.528,102.55885 l 0,38.23979 -69.78884,0 c -13.02705,3.22698 -16.41409,-3.18604 -14.06522,-15.33499 1.3679,-8.3996 -5.04116,-24.57617 8.98611,-20.31641 8.42664,-0.36229 20.85442,0.72956 26.76298,-0.53722 -29.90421,-19.67126 -36.42736,-60.92804 -24.90715,-92.79133 10.89695,-35.13803 47.01461,-56.90107 82.77963,-57.0911 l 0,-3e-5 z m -299.276464,3.32094 46.981714,0 c 0.0125,14.94432 -0.0347,29.88872 0.0488,44.83287 -1.16558,21.33163 3.29572,45.07651 21.68387,58.31203 0.57786,-34.37897 0.21692,-68.76367 0.29303,-103.1449 l 47.03055,0 0,103.29141 c 6.70866,-5.30038 12.22465,-11.74705 15.96987,-19.43734 10.56784,-26.48967 4.63771,-56.04708 6.1047,-83.85407 l 46.98172,0 c -0.93206,28.71522 3.39029,58.19748 -4.78609,86.14944 -8.94346,28.26485 -32.78537,56.11869 -64.12368,58.89807 -0.23849,12.5662 -0.11784,25.13501 -0.14644,37.70259 l -47.03056,0 0,-37.65375 C 138.40572,340.29945 120.79819,325.60022 108.63806,308.99909 85.141109,277.81677 91.673366,236.46518 90.958869,199.94486 c -0.03256,-1.10699 -0.06511,-2.21398 -0.09766,-3.32097 l -2.3e-5,0 z"
     id="rect3530"
     sodipodi:nodetypes="cccccccccccccccccccccccccccccccccccccccccccc" />
  <rect
     y="149.82085"
     x="73.263283"
     height="273.98654"
     width="437.7486"
     id="rect3544"
     style="fill:none;stroke:#000000;;stroke-width:20.52455710999999994;stroke-linecap:round;stroke-linejoin:round;stroke-miterlimit:4;stroke-opacity:1;stroke-dasharray:none;stroke-dashoffset:0" />
</svg>
